wwr/images/facebook.svg

<svg enable-background="new 0 0 32 32" height="32" viewBox="0 0 32 32" width="32" xmlns="http://www.w3.org/2000/svg"><g fill="#263238"><path d="m15.5 30h-11c-1.378 0-2.5-1.121-2.5-2.5v-19.5c0-.276.224-.5.5-.5s.5.224.5.5v19.5c0 .827.673 1.5 1.5 1.5h11c.276 0 .5.224.5.5s-.224.5-.5.5z"/><path d="m27.5 30h-6c-.276 0-.5-.224-.5-.5v-10c0-.276.224-.5.5-.5h3.059l.375-3h-3.434c-.276 0-.5-.224-.5-.5v-4c0-.827.673-1.5 1.5-1.5h2.5v-3h-3.5c-1.93 0-3.5 1.57-3.5 3.5v5c0 .276-.224.5-.5.5h-3.5v3h3.5c.276 0 .5.224.5.5v10c0 .276-.224.5-.5.5s-.5-.224-.5-.5v-9.5h-3.5c-.276 0-.5-.224-.5-.5v-4c0-.276.224-.5.5-.5h3.5v-4.5c0-2.481 2.019-4.5 4.5-4.5h4c.276 0 .5.224.5.5v4c0 .276-.224.5-.5.5h-3c-.276 0-.5.225-.5.5v3.5h3.5c.144 0 .28.062.375.169s.139.251.121.394l-.5 4c-.031.25-.244.437-.496.437h-3v9h5.5c.827 0 1.5-.673 1.5-1.5v-23c0-.827-.673-1.5-1.5-1.5h-23c-.827 0-1.5.673-1.5 1.5v1c0 .276-.224.5-.5.5s-.5-.224-.5-.5v-1c0-1.379 1.122-2.5 2.5-2.5h23c1.378 0 2.5 1.121 2.5 2.5v23c0 1.379-1.122 2.5-2.5 2.5z"/></g></svg>

<?xml version="1.0" ?><!DOCTYPE svg  PUBLIC '-//W3C//DTD SVG 1.1//EN'  'http://www.w3.org/Graphics/SVG/1.1/DTD/svg11.dtd'><svg enable-background="new 0 0 32 32" height="32px" version="1.1" viewBox="0 0 32 32" width="32px" xml:space="preserve" xmlns="http://www.w3.org/2000/svg" xmlns:xlink="http://www.w3.org/1999/xlink"><g id="facebook_logo"><g><path d="M15.5,30h-11C3.122,30,2,28.879,2,27.5V8c0-0.276,0.224-0.5,0.5-0.5S3,7.724,3,8v19.5    C3,28.327,3.673,29,4.5,29h11c0.276,0,0.5,0.224,0.5,0.5S15.776,30,15.5,30z" fill="#263238"/><path d="M27.5,30h-6c-0.276,0-0.5-0.224-0.5-0.5v-10c0-0.276,0.224-0.5,0.5-0.5h3.059l0.375-3H21.5    c-0.276,0-0.5-0.224-0.5-0.5v-4c0-0.827,0.673-1.5,1.5-1.5H25V7h-3.5C19.57,7,18,8.57,18,10.5v5c0,0.276-0.224,0.5-0.5,0.5H14v3    h3.5c0.276,0,0.5,0.224,0.5,0.5v10c0,0.276-0.224,0.5-0.5,0.5S17,29.776,17,29.5V20h-3.5c-0.276,0-0.5-0.224-0.5-0.5v-4    c0-0.276,0.224-0.5,0.5-0.5H17v-4.5C17,8.019,19.019,6,21.5,6h4C25.776,6,26,6.224,26,6.5v4c0,0.276-0.224,0.5-0.5,0.5h-3    c-0.276,0-0.5,0.225-0.5,0.5V15h3.5c0.144,0,0.28,0.062,0.375,0.169c0.095,0.107,0.139,0.251,0.121,0.394l-0.5,4    C25.465,19.813,25.252,20,25,20h-3v9h5.5c0.827,0,1.5-0.673,1.5-1.5v-23C29,3.673,28.327,3,27.5,3h-23C3.673,3,3,3.673,3,4.5v1    C3,5.776,2.776,6,2.5,6S2,5.776,2,5.5v-1C2,3.121,3.122,2,4.5,2h23C28.878,2,30,3.121,30,4.5v23C30,28.879,28.878,30,27.5,30z" fill="#263238"/></g></g></svg>
